src/imagens/footer/iconeGithub.svg

<svg width="100" height="114" viewBox="0 0 100 114" fill="none" xmlns="http://www.w3.org/2000/svg">
<g filter="url(#filter0_i_146_151)">
<path d="M97.6881 26.605L50.8858 1.00599C49.8749 0.453067 48.6504 0.460295 47.6461 1.02511L1.77155 26.8247C0.71738 27.4175 0.0661101 28.534 0.0689369 29.7434L0.196386 84.271C0.199212 85.4804 0.855694 86.5938 1.91262 87.1817L47.9072 112.767C48.9142 113.327 50.1387 113.328 51.147 112.771L97.8292 86.953C98.895 86.3636 99.5554 85.2407 99.5526 84.0227L99.4252 29.5272C99.4224 28.3093 98.7567 27.1894 97.6881 26.605Z" fill="#151515"/>
</g>
<path d="M49.5 34C55.4674 34 61.1903 36.3705 65.4099 40.5901C69.6295 44.8097 72 50.5326 72 56.5C72 62.4674 69.6295 68.1903 65.4099 72.4099C61.1903 76.6295 55.4674 79 49.5 79C43.5326 79 37.8097 76.6295 33.5901 72.4099C29.3705 68.1903 27 62.4674 27 56.5C27 50.5326 29.3705 44.8097 33.5901 40.5901C37.8097 36.3705 43.5326 34 49.5 34ZM49.5 37.675C39.1613 37.675 30.75 46.0862 30.75 56.5C30.7452 60.458 31.988 64.3168 34.3018 67.528C36.6156 70.7392 39.8827 73.1394 43.6388 74.3875C43.6947 74.3959 43.751 74.4021 43.8075 74.4062C44.5688 74.4437 44.8538 73.9225 44.8538 73.4687L44.8275 70.2662C39.615 71.4025 38.5125 67.7387 38.5125 67.7387C37.6613 65.5637 36.4313 64.9862 36.4313 64.9862C34.7288 63.8162 36.5588 63.8387 36.5588 63.8387C37.9275 63.9362 38.8237 64.9187 39.2137 65.4512L39.4313 65.7812C41.1038 68.6575 43.8188 67.8287 44.8875 67.3487C45.06 66.13 45.54 65.3012 46.0763 64.8287C41.9137 64.3525 37.5375 62.7362 37.5375 55.5212C37.5375 53.4662 38.2688 51.7862 39.4688 50.4662L39.3563 50.1475C39.1163 49.3862 38.7863 47.68 39.6525 45.4825L39.8025 45.4562C40.2675 45.3962 41.8575 45.4075 44.8088 47.4137C46.3375 46.9956 47.9151 46.7825 49.5 46.78C51.0938 46.7875 52.6987 46.9975 54.195 47.4175C57.7762 44.98 59.3475 45.4825 59.3475 45.4825C60.3675 48.0775 59.7225 49.99 59.535 50.47C60.735 51.7825 61.4588 53.4662 61.4588 55.5212C61.4588 62.7587 57.075 64.3487 52.8975 64.8137C53.5725 65.395 54.1725 66.5462 54.1725 68.3012L54.15 73.4687C54.15 73.9562 54.4688 74.5262 55.3612 74.3875C59.1173 73.1394 62.3844 70.7392 64.6982 67.528C67.012 64.3168 68.2548 60.458 68.25 56.5C68.25 46.0862 59.8387 37.675 49.5 37.675Z" fill="#00FFC2"/>
<defs>
<filter id="filter0_i_146_151" x="0.0689697" y="0.596436" width="101.153" height="114.261" filterUnits="userSpaceOnUse" color-interpolation-filters="sRGB">
<feFlood flood-opacity="0" result="BackgroundImageFix"/>
<feBlend mode="normal" in="SourceGraphic" in2="BackgroundImageFix" result="shape"/>
<feColorMatrix in="SourceAlpha" type="matrix" values="0 0 0 0 0 0 0 0 0 0 0 0 0 0 0 0 0 0 127 0" result="hardAlpha"/>
<feOffset dx="1.66986" dy="1.66986"/>
<feGaussianBlur stdDeviation="2.50479"/>
<feComposite in2="hardAlpha" operator="arithmetic" k2="-1" k3="1"/>
<feColorMatrix type="matrix" values="0 0 0 0 0 0 0 0 0 0 0 0 0 0 0 0 0 0 0.25 0"/>
<feBlend mode="normal" in2="shape" result="effect1_innerShadow_146_151"/>
</filter>
</defs>
</svg>

<svg xmlns="http://www.w3.org/2000/svg" width="100" height="114" fill="none"><g filter="url(#a)"><path fill="#151515" d="M97.688 26.605 50.886 1.006a3.34 3.34 0 0 0-3.24.02L1.772 26.824a3.34 3.34 0 0 0-1.703 2.918l.127 54.528a3.34 3.34 0 0 0 1.717 2.91l45.994 25.586a3.342 3.342 0 0 0 3.24.004l46.682-25.818a3.34 3.34 0 0 0 1.724-2.93l-.128-54.496a3.34 3.34 0 0 0-1.737-2.922Z"/></g><path fill="#00FFC2" d="M49.5 34a22.5 22.5 0 1 1 0 45 22.5 22.5 0 0 1 0-45Zm0 3.675c-10.339 0-18.75 8.411-18.75 18.825a18.825 18.825 0 0 0 12.889 17.888c.056.008.112.014.168.018.762.038 1.047-.484 1.047-.937l-.026-3.203c-5.213 1.136-6.316-2.527-6.316-2.527-.85-2.175-2.08-2.753-2.08-2.753-1.703-1.17.127-1.147.127-1.147 1.369.097 2.265 1.08 2.655 1.612l.217.33c1.673 2.876 4.388 2.048 5.457 1.568.172-1.219.652-2.048 1.188-2.52-4.162-.476-8.538-2.093-8.538-9.308 0-2.055.73-3.735 1.93-5.055l-.112-.319c-.24-.76-.57-2.467.297-4.664l.15-.027c.465-.06 2.055-.049 5.006 1.958a17.89 17.89 0 0 1 4.691-.634c1.594.008 3.199.218 4.695.637 3.581-2.437 5.152-1.934 5.152-1.934 1.02 2.595.375 4.507.188 4.987 1.2 1.313 1.924 2.996 1.924 5.051 0 7.238-4.384 8.828-8.562 9.293.675.581 1.276 1.732 1.276 3.487l-.023 5.168c0 .487.319 1.057 1.211.919A18.825 18.825 0 0 0 68.25 56.5c0-10.414-8.411-18.825-18.75-18.825Z"/><defs><filter id="a" width="101.153" height="114.261" x=".069" y=".596" color-interpolation-filters="sRGB" filterUnits="userSpaceOnUse"><feFlood flood-opacity="0" result="BackgroundImageFix"/><feBlend in="SourceGraphic" in2="BackgroundImageFix" result="shape"/><feColorMatrix in="SourceAlpha" result="hardAlpha" values="0 0 0 0 0 0 0 0 0 0 0 0 0 0 0 0 0 0 127 0"/><feOffset dx="1.67" dy="1.67"/><feGaussianBlur stdDeviation="2.505"/><feComposite in2="hardAlpha" k2="-1" k3="1" operator="arithmetic"/><feColorMatrix values="0 0 0 0 0 0 0 0 0 0 0 0 0 0 0 0 0 0 0.25 0"/><feBlend in2="shape" result="effect1_innerShadow_146_151"/></filter></defs></svg>
